X:220
T: Mariechen sa auf einem Stein (6b), S. 41
N: T0108
O: Luxemburg
S: Singendes Volk, Esch-Alzette 1937 posth.]
N: JUNGLINSTER; 1890
R: "erzhlendes Lied"]
M: 2/4
L: 1/8
K: F
c | dcBG | FAA2 | GBB2 | Acc
c | dcBG | FAA2 | c2c2 | F2z

@@@ Tune index: 8274
